img/know-how-item-1.svg

<svg width="21" height="24" viewBox="0 0 21 24" fill="none" xmlns="http://www.w3.org/2000/svg">
<path d="M0 24H21V6.54545L13.8158 0H0V24Z" fill="#F35A05"/>
<path d="M11.5809 18.7034C11.9693 19.096 12.6025 19.0993 12.9951 18.7108C13.3876 18.3223 13.3909 17.6892 13.0025 17.2966L11.5809 18.7034ZM10.011 11.8529C10.011 13.9908 8.2988 15.7059 6.20864 15.7059V17.7059C9.42306 17.7059 12.011 15.0755 12.011 11.8529H10.011ZM6.20864 15.7059C4.11848 15.7059 2.40625 13.9908 2.40625 11.8529H0.40625C0.40625 15.0755 2.99422 17.7059 6.20864 17.7059V15.7059ZM2.40625 11.8529C2.40625 9.71512 4.11848 8 6.20864 8V6C2.99422 6 0.40625 8.63035 0.40625 11.8529H2.40625ZM6.20864 8C8.2988 8 10.011 9.71512 10.011 11.8529H12.011C12.011 8.63035 9.42306 6 6.20864 6V8ZM13.0025 17.2966L10.3211 14.587L8.89948 15.9938L11.5809 18.7034L13.0025 17.2966Z" fill="white"/>
</svg>

<svg xmlns="http://www.w3.org/2000/svg" width="21" height="24" fill="none"><path fill="#F35A05" d="M0 24h21V6.545L13.816 0H0v24Z"/><path fill="#fff" d="M11.58 18.703a1 1 0 1 0 1.422-1.406l-1.421 1.406Zm-1.569-6.85c0 2.138-1.712 3.853-3.802 3.853v2c3.214 0 5.802-2.63 5.802-5.853h-2Zm-3.802 3.853c-2.09 0-3.803-1.715-3.803-3.853h-2c0 3.223 2.588 5.853 5.803 5.853v-2Zm-3.803-3.853C2.406 9.715 4.118 8 6.21 8V6C2.994 6 .406 8.63.406 11.853h2ZM6.21 8c2.09 0 3.802 1.715 3.802 3.853h2C12.011 8.63 9.423 6 6.209 6v2Zm6.793 9.297-2.68-2.71-1.423 1.407 2.682 2.71 1.421-1.407Z"/></svg>
